X: 4199
T: SLIP JIG
R: Slip Jig
%R: slip-jig
B: James Kerr "Merry Melodies" v.4 p.23 #199
Z: 2016 John Chambers <jc:trillian.mit.edu>
M: 9/8
L: 1/8
K: D
|:\
F2A ABA B3 | B2e e2d cBA |\
F2A ABA B3 | A2d d2A FED :|\
|:\
faf f2d f2a | b2e e2d cBA |\
[1 faf f2d f2a | A2d d2A FED :|\
[2 faf efe d3 | A2d d2A FED |]

%%sep 1 1 500
%%sep 1 1 500

